client/public/assets/icons/utility/copy.svg

<?xml version="1.0"?><svg xmlns="http://www.w3.org/2000/svg" width="52" height="52" viewBox="0 0 52 52"><path fill="#fff" d="m44 2h-26c-2.2 0-4 1.8-4 4v2h24c2.2 0 4 1.8 4 4v28h2c2.2 0 4-1.8 4-4v-30c0-2.2-1.8-4-4-4z m-6 14c0-2.2-1.8-4-4-4h-26c-2.2 0-4 1.8-4 4v30c0 2.2 1.8 4 4 4h26c2.2 0 4-1.8 4-4v-30z m-18 7c0 0.6-0.4 1-1 1h-8c-0.6 0-1-0.4-1-1v-2c0-0.6 0.4-1 1-1h8c0.6 0 1 0.4 1 1v2z m8 16c0 0.6-0.4 1-1 1h-16c-0.6 0-1-0.4-1-1v-2c0-0.6 0.4-1 1-1h16c0.6 0 1 0.4 1 1v2z m4-8c0 0.6-0.4 1-1 1h-20c-0.6 0-1-0.4-1-1v-2c0-0.6 0.4-1 1-1h20c0.6 0 1 0.4 1 1v2z"></path></svg>

<?xml version="1.0" encoding="utf-8"?>
<!-- Generator: Adobe Illustrator 18.1.1, SVG Export Plug-In . SVG Version: 6.00 Build 0)  -->
<svg version="1.1" id="Layer_1" xmlns="http://www.w3.org/2000/svg" xmlns:xlink="http://www.w3.org/1999/xlink" x="0px" y="0px"
	 width="52px" height="52px" viewBox="0 0 52 52" enable-background="new 0 0 52 52" xml:space="preserve">
<path fill="#FFFFFF" d="M44,2H18c-2.2,0-4,1.8-4,4v2h24c2.2,0,4,1.8,4,4v28h2c2.2,0,4-1.8,4-4V6C48,3.8,46.2,2,44,2z"/>
<path fill="#FFFFFF" d="M38,16c0-2.2-1.8-4-4-4H8c-2.2,0-4,1.8-4,4v30c0,2.2,1.8,4,4,4h26c2.2,0,4-1.8,4-4V16z M20,23
	c0,0.6-0.4,1-1,1h-8c-0.6,0-1-0.4-1-1v-2c0-0.6,0.4-1,1-1h8c0.6,0,1,0.4,1,1V23z M28,39c0,0.6-0.4,1-1,1H11c-0.6,0-1-0.4-1-1v-2
	c0-0.6,0.4-1,1-1h16c0.6,0,1,0.4,1,1V39z M32,31c0,0.6-0.4,1-1,1H11c-0.6,0-1-0.4-1-1v-2c0-0.6,0.4-1,1-1h20c0.6,0,1,0.4,1,1V31z"/>
</svg>
